src/assets/icons/external-link.svg

<svg width="26" height="26" viewBox="0 0 26 26" fill="none" xmlns="http://www.w3.org/2000/svg">
	<g clip-path="url(#clip0_42_228)">
		<path d="M20.2134 23.6906C20.2134 22.2551 20.2107 20.8641 20.2134 19.473C20.2174 17.9245 20.2215 16.3759 20.239 14.8273C20.2457 14.2914 20.5335 13.9076 20.9947 13.7433C21.4412 13.583 21.9643 13.6881 22.2333 14.0853C22.396 14.3277 22.4995 14.6617 22.5009 14.9539C22.5116 17.8154 22.4955 20.6769 22.4874 23.5384C22.4874 23.9316 22.4874 24.3235 22.4847 24.7167C22.4767 25.5596 22.0369 25.9959 21.1884 25.9959C14.8235 25.9959 8.45867 25.9959 2.09382 25.9959C1.78049 25.9959 1.46581 26.0027 1.15248 25.9932C0.486811 25.9744 0.0403434 25.5367 0.00537912 24.8742C0 24.7854 0.00268956 24.6951 0.00268956 24.6049C0 18.0214 0.00268956 11.4352 0 4.84771C0 4.49086 0.0336195 4.15286 0.286438 3.87412C0.509672 3.62769 0.781318 3.49573 1.11482 3.49573C4.49964 3.50246 7.88311 3.5065 11.2679 3.52131C11.9632 3.52401 12.4648 4.02898 12.4607 4.67265C12.4567 5.33113 11.9443 5.80379 11.2235 5.80244C8.38875 5.7984 5.55395 5.79032 2.7178 5.78359C2.58601 5.78359 2.45423 5.78359 2.30361 5.78359V23.6892H20.2121L20.2134 23.6906Z" fill="#FF4040"/>
		<path d="M21.8795 2.30941C20.4688 2.30941 19.0581 2.30941 17.6474 2.30941C17.1875 2.30941 16.729 2.32153 16.269 2.31749C15.5469 2.31075 15.0399 1.83002 15.0466 1.1675C15.0534 0.504975 15.5294 0.0417474 16.2502 0.0377076C19.0958 0.0188553 21.9427 0.00673597 24.7882 3.00646e-06C25.4889 -0.00134359 25.9649 0.449765 25.969 1.14999C25.9891 4.11249 25.9972 7.07365 25.9985 10.0362C25.9985 10.6866 25.4929 11.1686 24.8649 11.1659C24.2127 11.1619 23.7312 10.6704 23.7259 9.96209C23.7111 8.07686 23.7097 6.19163 23.703 4.3064C23.703 4.1879 23.703 4.0694 23.703 3.84048C23.4972 4.04382 23.3641 4.1704 23.235 4.30102C19.904 7.67692 16.573 11.0515 13.246 14.4314C12.9353 14.7479 12.5857 14.9391 12.1392 14.8637C11.6968 14.7883 11.3794 14.5405 11.2423 14.1015C11.0984 13.6423 11.2033 13.2397 11.5408 12.8963C12.7847 11.6359 14.0286 10.3741 15.2726 9.11374C17.4054 6.95111 19.5382 4.78579 21.6764 2.6272C21.7598 2.54372 21.8929 2.5087 22.0019 2.4508C21.9602 2.40367 21.9198 2.35519 21.8781 2.30806L21.8795 2.30941Z" fill="#FF4040"/>
	</g>
	<defs>
		<clipPath id="clip0_42_228">
			<rect width="26" height="26" fill="white"/>
		</clipPath>
	</defs>
</svg>

<svg xmlns="http://www.w3.org/2000/svg" width="26" height="26" fill="none"><g fill="#FF4040" clip-path="url(#a)"><path d="M20.213 23.69c0-1.435-.002-2.826 0-4.217.004-1.549.008-3.097.026-4.646.007-.536.294-.92.756-1.084.446-.16.97-.055 1.238.342.163.243.267.577.268.869.01 2.861-.006 5.723-.014 8.584 0 .394 0 .785-.002 1.179-.008.843-.448 1.279-1.297 1.279H2.094c-.314 0-.628.007-.942-.003-.665-.019-1.112-.456-1.147-1.119-.005-.089-.002-.179-.002-.27C0 18.022.003 11.436 0 4.849c0-.357.034-.695.286-.974.224-.246.495-.378.829-.378 3.385.006 6.768.01 10.153.025.695.003 1.197.508 1.193 1.152-.004.658-.517 1.13-1.238 1.13-2.834-.005-5.67-.013-8.505-.02h-.414V23.69h17.908l.001.002Z"/><path d="M21.88 2.31h-4.233c-.46 0-.918.012-1.378.007-.722-.006-1.23-.487-1.222-1.15.006-.662.482-1.125 1.203-1.13C19.096.02 21.943.008 24.788 0c.7-.001 1.177.45 1.181 1.15.02 2.962.028 5.924.03 8.886 0 .65-.506 1.133-1.134 1.13-.652-.004-1.134-.496-1.14-1.204-.014-1.885-.015-3.77-.022-5.656V3.84c-.206.204-.339.33-.468.461-3.331 3.376-6.662 6.75-9.989 10.13-.31.317-.66.508-1.107.433-.442-.076-.76-.324-.897-.763-.144-.459-.039-.861.299-1.205l3.732-3.782c2.132-2.163 4.265-4.328 6.403-6.487.084-.083.217-.118.326-.176l-.124-.143.002.001Z"/></g><defs><clipPath id="a"><path fill="#fff" d="M0 0h26v26H0z"/></clipPath></defs></svg>
